Origami/22x22/apps/ndm.svg

<svg width="22" height="22" version="1" xmlns="http://www.w3.org/2000/svg">
 <path d="m6 1.4988964a3.0003 3.0003 0 0 0 -3 3v9.0000016a3.0003 3.0003 0 0 0 3 3h1.75l2.849609 3.800781a3.0003 3.0003 0 0 0 4.800782 0l3-4a3.0003 3.0003 0 0 0 -1.400391 -4.625v-0.675781c0-1.4111884-0.140925-2.7254218-0.609375-3.990236-0.495947-1.3390557-1.374763-2.5238424-2.601563-3.3125-1.225373-0.78774-2.410407-1.0399778-3.498046-1.1347656a3.0003 3.0003 0 0 0 -2.291016 -1.0625z" style="opacity:.2"/>
 <path d="m6 0.9999992a3.0003 3.0003 0 0 0 -3 3v9.0000008a3.0003 3.0003 0 0 0 3 3h1.75l2.849609 3.800781a3.0003 3.0003 0 0 0 4.800782 0l3-4a3.0003 3.0003 0 0 0 -1.400391 -4.625v-0.675781c0-1.4111884-0.140925-2.7254215-0.609375-3.9902352-0.495947-1.3390557-1.374763-2.5238424-2.601563-3.3125-1.225373-0.78774-2.410407-1.0399778-3.498046-1.1347656a3.0003 3.0003 0 0 0 -2.291016 -1.0625z" style="fill:#e14343"/>
 <path d="M 6,4.4999992 V 13.5 H 8 V 7.4999992 c 1.4999997,0 2.573394,0.07606 3.083984,0.4042969 0.255296,0.1641181 0.445096,0.3718741 0.619141,0.8417971 C 11.87717,9.2160156 12,9.9490736 12,11 v 3.5 H 9.9999997 L 13,18.5 l 3,-4 H 14 V 11 C 14,9.8009256 13.87283,8.8464832 13.578125,8.0507802 13.28342,7.255078 12.78572,6.6190839 12.166016,6.2207023 10.926606,5.4239391 9.4999997,5.4999992 8,5.4999992 v -1 z" style="opacity:.2"/>
 <path d="M 6,3.9999992 V 13 H 8 V 6.9999992 c 1.4999997,0 2.573394,0.07606 3.083984,0.4042969 0.255296,0.1641184 0.445096,0.3718742 0.619141,0.8417971 C 11.87717,8.7160152 12,9.4490736 12,10.5 V 14 H 9.9999997 L 13,18 16,14 H 14 V 10.5 C 14,9.3009256 13.87283,8.3464832 13.578125,7.5507804 13.28342,6.755078 12.78572,6.1190839 12.166016,5.7207023 10.926606,4.9239391 9.4999997,4.9999992 8,4.9999992 v -1 z" style="fill:#ffffff"/>
 <path d="m6 0.9999992a3.0003 3.0003 0 0 0 -3 3v0.5a3.0003 3.0003 0 0 1 3 -3h2a3.0003 3.0003 0 0 1 2.291016 1.0625c1.087639 0.094788 2.272674 0.3470256 3.498046 1.1347656 1.2268 0.7886576 2.105616 1.9734443 2.601563 3.3125 0.46845 1.2648144 0.609375 2.5790468 0.609375 3.9902352v-0.5c0-1.4111884-0.140925-2.7254215-0.609375-3.9902352-0.495947-1.3390557-1.374763-2.5238424-2.601563-3.3125-1.225372-0.78774-2.410407-1.0399778-3.498046-1.1347656a3.0003 3.0003 0 0 0 -2.291016 -1.0625zm11 10.175782v0.5a3.0003 3.0003 0 0 1 1.984375 2.582031 3.0003 3.0003 0 0 0 -1.984375 -3.082031z" style="fill:#ffffff;opacity:.2"/>
</svg>

<svg xmlns="http://www.w3.org/2000/svg" width="22" height="22" version="1">
 <path style="opacity:0.2" d="m 6,1.4988964 a 3.0003,3.0003 0 0 0 -3,3 v 9.0000016 a 3.0003,3.0003 0 0 0 3,3 h 1.75 l 2.849609,3.800781 a 3.0003,3.0003 0 0 0 4.800782,0 l 3,-4 A 3.0003,3.0003 0 0 0 17,11.674679 V 10.998898 C 17,9.5877096 16.859075,8.2734762 16.390625,7.008662 15.894678,5.6696063 15.015862,4.4848196 13.789062,3.696162 12.563689,2.908422 11.378655,2.6561842 10.291016,2.5613964 A 3.0003,3.0003 0 0 0 8,1.4988964 Z"/>
 <path style="fill:#e14343" d="m 6,0.9999992 a 3.0003,3.0003 0 0 0 -3,3 V 13 a 3.0003,3.0003 0 0 0 3,3 h 1.75 l 2.849609,3.800781 a 3.0003,3.0003 0 0 0 4.800782,0 l 3,-4 A 3.0003,3.0003 0 0 0 17,11.175781 V 10.5 C 17,9.0888116 16.859075,7.7745785 16.390625,6.5097648 15.894678,5.1707091 15.015862,3.9859224 13.789062,3.1972648 12.563689,2.4095248 11.378655,2.157287 10.291016,2.0624992 A 3.0003,3.0003 0 0 0 8,0.9999992 Z"/>
 <path style="opacity:0.2" d="M 6,4.4999992 V 13.5 H 8 V 7.4999992 c 1.4999997,0 2.573394,0.07606 3.083984,0.4042969 0.255296,0.1641181 0.445096,0.3718741 0.619141,0.8417971 C 11.87717,9.2160156 12,9.9490736 12,11 v 3.5 H 9.9999997 L 13,18.5 l 3,-4 H 14 V 11 C 14,9.8009256 13.87283,8.8464832 13.578125,8.0507802 13.28342,7.255078 12.78572,6.6190839 12.166016,6.2207023 10.926606,5.4239391 9.4999997,5.4999992 8,5.4999992 v -1 z"/>
 <path style="fill:#ffffff" d="M 6,3.9999992 V 13 H 8 V 6.9999992 c 1.4999997,0 2.573394,0.07606 3.083984,0.4042969 0.255296,0.1641184 0.445096,0.3718742 0.619141,0.8417971 C 11.87717,8.7160152 12,9.4490736 12,10.5 V 14 H 9.9999997 L 13,18 16,14 H 14 V 10.5 C 14,9.3009256 13.87283,8.3464832 13.578125,7.5507804 13.28342,6.755078 12.78572,6.1190839 12.166016,5.7207023 10.926606,4.9239391 9.4999997,4.9999992 8,4.9999992 v -1 z"/>
 <path style="opacity:0.2;fill:#ffffff" d="m 6,0.9999992 a 3.0003,3.0003 0 0 0 -3,3 v 0.5 a 3.0003,3.0003 0 0 1 3,-3 h 2 a 3.0003,3.0003 0 0 1 2.291016,1.0625 c 1.087639,0.094788 2.272674,0.3470256 3.498046,1.1347656 1.2268,0.7886576 2.105616,1.9734443 2.601563,3.3125 C 16.859075,8.2745792 17,9.5888116 17,11 V 10.5 C 17,9.0888116 16.859075,7.7745785 16.390625,6.5097648 15.894678,5.1707091 15.015862,3.9859224 13.789062,3.1972648 12.56369,2.4095248 11.378655,2.157287 10.291016,2.0624992 A 3.0003,3.0003 0 0 0 8,0.9999992 Z M 17,11.175781 v 0.5 A 3.0003,3.0003 0 0 1 18.984375,14.257812 3.0003,3.0003 0 0 0 17,11.175781 Z"/>
</svg>
